X: 20371
T: My Mother says I Mannot
%R: jig
B: James Oswald "The Caledonian Pocket Companion" v.2 p.37 #1
Z: 2019 John Chambers <jc:trillian.mit.edu>
M: 6/8
L: 1/8
K: D
%%slurgraces 1
%%graceslurs 1
"_Brisk"D |\
FGA TB2A | d2c TB2A | GAF TE2D | Dd2 zz :: d |\
Tc2d edc | d2c TB2A | Tc2d e2E | {EF}G2F TE2D |\
Tc2d edc |
d2c TB2d | AGF TE2D | DdD DdB |\
AGF TE2D | Dd2 zz :: D | (D/E/F/G/)A FAd | (f/g/a)A B2d |\
AGF TE2D | Dd2 zz :: d |
Tc2d ecA | fdB ecA |\
Tc2d ecA | BGE AFD | Tc2e (d2f) | (A2=c) (B2d) |\
AGF TE2D | dd'd dd'b | agf Te2d | dd'2 zz :|


